icon/openvpn.svg

<svg width="119" height="119" viewBox="0 0 119 119" fill="none" xmlns="http://www.w3.org/2000/svg">
<path d="M78.8326 58.0426C78.8765 48.6428 71.4389 40.699 61.5235 39.5555C51.6081 38.4119 42.3519 44.4304 39.982 53.5619C37.6121 62.6934 42.8784 72.049 52.2379 75.3346L44.6584 113.322H73.7264L66.2799 75.2595C73.8362 72.5045 78.8207 65.6679 78.8326 58.0426Z" fill="#1A3967"/>
<path d="M118.249 57.7933C117.583 25.6833 91.3083 0 59.1246 0C26.9408 0 0.665851 25.6833 3.09067e-08 57.7933C-0.000675955 78.6062 11.0875 97.8498 29.1129 108.319L32.9103 83.2079C27.0781 76.837 23.8452 68.5192 23.8473 59.8902C24.3594 40.8148 40.0026 25.6167 59.1246 25.6167C78.2465 25.6167 93.8897 40.8148 94.4018 59.8902C94.405 68.5881 91.1238 76.9678 85.2123 83.3594L88.9843 108.395C107.107 97.9657 118.266 78.67 118.249 57.7933Z" fill="#ED7F22"/>
</svg>

<svg xmlns="http://www.w3.org/2000/svg" width="119" height="119" fill="none" viewBox="0 0 119 119"><path fill="#1a3967" d="M78.833 58.043c.043-9.4-7.394-17.344-17.31-18.487-9.915-1.144-19.171 4.874-21.541 14.006-2.37 9.131 2.896 18.487 12.256 21.773l-7.58 37.987h29.068L66.28 75.26c7.556-2.756 12.54-9.592 12.553-17.217"/><path fill="#ed7f22" d="M118.249 57.793C117.583 25.683 91.309 0 59.125 0S.665 25.683 0 57.793C0 78.606 11.088 97.85 29.113 108.32l3.797-25.111a34.52 34.52 0 0 1-9.063-23.318c.512-19.075 16.156-34.273 35.278-34.273 19.121 0 34.765 15.198 35.277 34.273a34.55 34.55 0 0 1-9.19 23.47l3.772 25.035c18.123-10.43 29.282-29.725 29.265-50.602"/></svg>
